src/assets/logos/firebase.svg

<svg width="73" height="100" viewBox="0 0 73 100" fill="none" xmlns="http://www.w3.org/2000/svg">
<path d="M47.4054 36.1174L37.4046 45.4291L28.1213 26.6963L32.917 15.9253C34.1291 13.7767 36.1114 13.7484 37.3235 15.9253L47.4054 36.1174Z" fill="#FFA000"/>
<path d="M37.4088 45.425L0 80.2191L28.1256 26.6963L37.4088 45.425Z" fill="#F57F17"/>
<path d="M58.3712 21.8766C60.163 20.17 62.0075 20.7456 62.4736 23.1698L72.1988 79.7492L39.9424 99.1144C38.8114 99.7468 35.8116 99.9941 35.8116 99.9941C35.8116 99.9941 33.0833 99.6617 32.0375 99.086L0 80.2195L58.3712 21.8766Z" fill="#FFCA28"/>
<path d="M28.1255 26.6965L0 80.2192L12.5345 1.98839C13.0047 -0.435802 14.379 -0.683086 15.6194 1.46545L28.1255 26.6965Z" fill="#FFA000"/>
</svg>

<svg width="73" height="100" fill="none" xmlns="http://www.w3.org/2000/svg"><path d="m47.405 36.117-10 9.312-9.284-18.733 4.796-10.77c1.212-2.15 3.194-2.178 4.407 0l10.081 20.191z" fill="#FFA000"/><path d="M37.409 45.425 0 80.219l28.126-53.523 9.283 18.729z" fill="#F57F17"/><path d="M58.371 21.877c1.792-1.707 3.636-1.131 4.103 1.293l9.725 56.58-32.257 19.364c-1.13.633-4.13.88-4.13.88s-2.729-.332-3.774-.908L0 80.219l58.371-58.342z" fill="#FFCA28"/><path d="M28.125 26.697 0 80.219 12.534 1.99c.47-2.425 1.845-2.672 3.085-.524l12.506 25.232z" fill="#FFA000"/></svg>
